gama.ui.shared/icons_svg/dark/prefs/prefs.editor2.svg

<?xml version="1.0" encoding="UTF-8" standalone="no"?>
<!DOCTYPE svg PUBLIC "-//W3C//DTD SVG 1.1//EN" "http://www.w3.org/Graphics/SVG/1.1/DTD/svg11.dtd">
<svg xmlns="http://www.w3.org/2000/svg" xmlns:xl="http://www.w3.org/1999/xlink" version="1.1" xmlns:dc="http://purl.org/dc/elements/1.1/" viewBox="-850.7741 -3072.3843 25 25" width="25" height="25">
  <defs/>
  <g id="SOURCES" stroke-opacity="1" fill="none" stroke="none" fill-opacity="1" stroke-dasharray="none">
    <title>SOURCES</title>
    <g id="SOURCES_Dark">
      <title>Dark</title>
      <g id="Graphic_11138">
        <path d="M -841.8741 -3071.8843 L -834.6741 -3071.8843 C -832.2741 -3071.8843 -831.0741 -3071.8843 -829.6341 -3071.4043 C -828.4341 -3070.9243 -827.2341 -3069.7243 -826.7541 -3068.5243 C -826.2741 -3067.0843 -826.2741 -3065.8843 -826.2741 -3063.4843 L -826.2741 -3056.2843 C -826.2741 -3053.8843 -826.2741 -3052.6843 -826.7541 -3051.2443 C -827.2341 -3050.0443 -828.4341 -3048.8443 -829.6341 -3048.3643 C -831.0741 -3047.8843 -832.2741 -3047.8843 -834.6741 -3047.8843 L -841.8741 -3047.8843 C -844.2741 -3047.8843 -845.4741 -3047.8843 -846.9141 -3048.3643 C -848.1141 -3048.8443 -849.3141 -3050.0443 -849.7941 -3051.2443 C -850.2741 -3052.6843 -850.2741 -3053.8843 -850.2741 -3056.2843 L -850.2741 -3063.4843 C -850.2741 -3065.8843 -850.2741 -3067.0843 -849.7941 -3068.5243 C -849.3141 -3069.7243 -848.1141 -3070.9243 -846.9141 -3071.4043 C -845.4741 -3071.8843 -844.2741 -3071.8843 -841.8741 -3071.8843 M -841.8741 -3071.8843" fill="#ff9244"/>
        <path d="M -841.8741 -3071.8843 L -834.6741 -3071.8843 C -832.2741 -3071.8843 -831.0741 -3071.8843 -829.6341 -3071.4043 C -828.4341 -3070.9243 -827.2341 -3069.7243 -826.7541 -3068.5243 C -826.2741 -3067.0843 -826.2741 -3065.8843 -826.2741 -3063.4843 L -826.2741 -3056.2843 C -826.2741 -3053.8843 -826.2741 -3052.6843 -826.7541 -3051.2443 C -827.2341 -3050.0443 -828.4341 -3048.8443 -829.6341 -3048.3643 C -831.0741 -3047.8843 -832.2741 -3047.8843 -834.6741 -3047.8843 L -841.8741 -3047.8843 C -844.2741 -3047.8843 -845.4741 -3047.8843 -846.9141 -3048.3643 C -848.1141 -3048.8443 -849.3141 -3050.0443 -849.7941 -3051.2443 C -850.2741 -3052.6843 -850.2741 -3053.8843 -850.2741 -3056.2843 L -850.2741 -3063.4843 C -850.2741 -3065.8843 -850.2741 -3067.0843 -849.7941 -3068.5243 C -849.3141 -3069.7243 -848.1141 -3070.9243 -846.9141 -3071.4043 C -845.4741 -3071.8843 -844.2741 -3071.8843 -841.8741 -3071.8843 M -841.8741 -3071.8843" stroke="#cf7737" stroke-linecap="round" stroke-linejoin="round" stroke-width=".25"/>
      </g>
      <g id="Graphic_11137">
        <path d="M -845.7741 -3065.3843 C -846.0541 -3065.3843 -846.2741 -3065.6043 -846.2741 -3065.8843 C -846.2741 -3066.1643 -846.0541 -3066.3843 -845.7741 -3066.3843 L -830.7741 -3066.3843 C -830.4941 -3066.3843 -830.2741 -3066.1643 -830.2741 -3065.8843 C -830.2741 -3065.6043 -830.4941 -3065.3843 -830.7741 -3065.3843 Z M -845.7741 -3057.3843 C -846.0541 -3057.3843 -846.2741 -3057.6043 -846.2741 -3057.8843 C -846.2741 -3058.1643 -846.0541 -3058.3843 -845.7741 -3058.3843 L -830.7741 -3058.3843 C -830.4941 -3058.3843 -830.2741 -3058.1643 -830.2741 -3057.8843 C -830.2741 -3057.6043 -830.4941 -3057.3843 -830.7741 -3057.3843 Z M -845.7741 -3061.3843 C -846.0541 -3061.3843 -846.2741 -3061.6043 -846.2741 -3061.8843 C -846.2741 -3062.1643 -846.0541 -3062.3843 -845.7741 -3062.3843 L -836.7741 -3062.3843 C -836.4941 -3062.3843 -836.2741 -3062.1643 -836.2741 -3061.8843 C -836.2741 -3061.6043 -836.4941 -3061.3843 -836.7741 -3061.3843 Z M -845.7741 -3053.3843 C -846.0541 -3053.3843 -846.2741 -3053.6043 -846.2741 -3053.8843 C -846.2741 -3054.1643 -846.0541 -3054.3843 -845.7741 -3054.3843 L -836.7741 -3054.3843 C -836.4941 -3054.3843 -836.2741 -3054.1643 -836.2741 -3053.8843 C -836.2741 -3053.6043 -836.4941 -3053.3843 -836.7741 -3053.3843 Z" fill="black"/>
      </g>
    </g>
  </g>
</svg>

<svg height="25" viewBox="-850.774 -3072.384 25 25" width="25" xmlns="http://www.w3.org/2000/svg"><g fill="none"><path d="m-841.8741-3071.8843h7.2c2.4 0 3.6 0 5.04.48 1.2.48 2.4 1.68 2.88 2.88.48 1.44.48 2.64.48 5.04v7.2c0 2.4 0 3.6-.48 5.04-.48 1.2-1.68 2.4-2.88 2.88-1.44.48-2.64.48-5.04.48h-7.2c-2.4 0-3.6 0-5.04-.48-1.2-.48-2.4-1.68-2.88-2.88-.48-1.44-.48-2.64-.48-5.04v-7.2c0-2.4 0-3.6.48-5.04.48-1.2 1.68-2.4 2.88-2.88 1.44-.48 2.64-.48 5.04-.48m0 0" fill="#ff9244"/><path d="m-841.8741-3071.8843h7.2c2.4 0 3.6 0 5.04.48 1.2.48 2.4 1.68 2.88 2.88.48 1.44.48 2.64.48 5.04v7.2c0 2.4 0 3.6-.48 5.04-.48 1.2-1.68 2.4-2.88 2.88-1.44.48-2.64.48-5.04.48h-7.2c-2.4 0-3.6 0-5.04-.48-1.2-.48-2.4-1.68-2.88-2.88-.48-1.44-.48-2.64-.48-5.04v-7.2c0-2.4 0-3.6.48-5.04.48-1.2 1.68-2.4 2.88-2.88 1.44-.48 2.64-.48 5.04-.48m0 0" stroke="#cf7737" stroke-linecap="round" stroke-linejoin="round" stroke-width=".25"/><path d="m-845.7741-3065.3843c-.28 0-.5-.22-.5-.5s.22-.5.5-.5h15c.28 0 .5.22.5.5s-.22.5-.5.5zm0 8c-.28 0-.5-.22-.5-.5s.22-.5.5-.5h15c.28 0 .5.22.5.5s-.22.5-.5.5zm0-4c-.28 0-.5-.22-.5-.5s.22-.5.5-.5h9c.28 0 .5.22.5.5s-.22.5-.5.5zm0 8c-.28 0-.5-.22-.5-.5s.22-.5.5-.5h9c.28 0 .5.22.5.5s-.22.5-.5.5z" fill="#000"/></g></svg>
